X: 1
T: Hop Toad Jig
P: piffero primo a0807
O: Dave Gregory
%R: jig
F: http://ancients.sudburymuster.org/mus/sng/pdf/hoptoadjigC0.pdf
Z: 2020 John Chambers <jc:trillian.mit.edu>
M: 6/8
L: 1/8
K: D
A |\
dAF AFD | BGd Bcd | AFD AFD | AEC egf |\
dAF AFD | BGd Bcd | AFD AFD | D2D D2 :|
|: A |\
DFA DFA | DGB dgb | a2b afa | Ace gef |\
dAF DFA | DGB dgb | AFA E2G | FDD D2 :|
